packages/core/src/svgs/tokens/branded/TAO.svg

<svg width="24" height="24" viewBox="0 0 24 24" fill="none" xmlns="http://www.w3.org/2000/svg">
<path d="M21.7489 10.9691L18.7118 13.65C18.8181 13.825 18.8556 14.0499 18.7869 14.2624C18.7243 14.456 18.5994 14.6123 18.4307 14.6936L19.1992 18.8555C19.5673 18.7524 19.8811 18.5104 20.0741 18.1806C20.5116 17.4801 20.7928 16.6935 20.899 15.8747C20.9678 15.3309 21.1303 14.7999 21.3802 14.3124C21.7552 13.575 21.9677 12.75 21.9989 11.9314C22.0114 11.5565 21.9176 11.2315 21.7489 10.9691Z" fill="url(#paint0_linear_364_12809)"/>
<path d="M17.5617 13.7C17.6462 13.5442 17.7891 13.4285 17.959 13.378C18.129 13.3277 18.3119 13.3468 18.4678 13.4312L21.5424 10.7254C21.0049 10.2066 20.1051 10.0567 19.274 10.3317L13.9621 12.1376C13.8398 12.1806 13.736 12.2644 13.6685 12.3751L17.5554 13.7H17.5617Z" fill="#EA302A"/>
<path d="M16.9564 17.8306C17.4313 18.5181 18.1812 18.9555 18.8686 18.9304L18.0998 14.7936C18.05 14.7936 17.9937 14.781 17.9374 14.7622C17.7943 14.7107 17.6714 14.6154 17.5861 14.4895C17.5007 14.3639 17.4575 14.2142 17.4625 14.0623L13.563 12.7313C13.563 12.8437 13.5942 12.9624 13.6693 13.0687L16.9564 17.8306Z" fill="url(#paint1_linear_364_12809)"/>
<path d="M15.9179 21.2489L12.5622 19.0305C12.4372 19.193 12.2497 19.2993 12.031 19.2993C11.8435 19.2993 11.6561 19.2118 11.5373 19.0743L8.01904 21.1365C8.20652 21.4427 8.49399 21.6801 8.89392 21.7988C9.64387 22.0175 10.4562 22.0613 11.231 21.9114C11.7472 21.8137 12.2773 21.8137 12.7934 21.9114C13.5683 22.0613 14.3806 22.0175 15.1305 21.7927C15.4742 21.6926 15.7367 21.4988 15.9179 21.2552V21.2489Z" fill="url(#paint2_linear_364_12809)"/>
<path d="M12.1625 17.8618C12.3387 17.9051 12.4916 18.0139 12.5903 18.166C12.6891 18.318 12.7259 18.5021 12.6937 18.6805L16.0869 20.9239C16.3932 20.224 16.2495 19.2741 15.737 18.5305L12.4687 13.7812C12.3944 13.6717 12.2837 13.5921 12.1562 13.5562V17.8618H12.1625Z" fill="url(#paint3_linear_364_12809)"/>
<path d="M8.23801 18.5494C8.00503 18.8694 7.84747 19.238 7.77711 19.6277C7.70677 20.0173 7.72548 20.4177 7.83182 20.799L11.3439 18.7555C11.3287 18.6984 11.3202 18.6396 11.3188 18.5806C11.3188 18.2555 11.5251 17.9807 11.8062 17.8932V13.5812C11.6945 13.6213 11.5983 13.6957 11.5314 13.7937L8.23801 18.5431V18.5494Z" fill="url(#paint4_linear_364_12809)"/>
<path d="M5.28817 13.65L2.24482 10.9691C2.08234 11.2315 1.98861 11.5503 2.00111 11.9314C2.03236 12.7438 2.25108 13.575 2.62602 14.3124C2.86974 14.7999 3.03222 15.3309 3.10097 15.8747C3.20624 16.6957 3.48762 17.4844 3.92585 18.1868C4.15706 18.5493 4.46327 18.7618 4.80073 18.8555L5.56937 14.6936C5.48376 14.6497 5.40801 14.5889 5.34677 14.5148C5.28551 14.4406 5.24005 14.3547 5.21318 14.2624C5.14442 14.0499 5.18193 13.825 5.28817 13.65Z" fill="url(#paint5_linear_364_12809)"/>
<path d="M5.15723 18.9118C5.84462 18.9367 6.59452 18.5056 7.06945 17.8119L10.3503 13.0625C10.4193 12.9612 10.4563 12.8414 10.4565 12.7188L6.56328 14.0499C6.56328 14.3624 6.38206 14.6435 6.08835 14.7498C6.03211 14.7685 5.97585 14.7748 5.91961 14.781L5.15723 18.9118Z" fill="url(#paint6_linear_364_12809)"/>
<path d="M5.64555 13.3938C5.95802 13.2875 6.28922 13.425 6.44544 13.7124L10.345 12.3814C10.2742 12.2724 10.1684 12.1907 10.045 12.1502L4.73319 10.3379C3.90205 10.063 2.99592 10.2129 2.4585 10.7378L5.53931 13.4376L5.64555 13.3938Z" fill="#DA181F"/>
<path d="M15.568 5.93853L14.0933 2.06405C14.3807 1.97032 14.6994 1.97656 15.0307 2.1078C15.7822 2.40262 16.4559 2.86664 16.9992 3.46386C17.358 3.86017 17.7857 4.18832 18.2615 4.43249C18.9786 4.80243 19.6024 5.33017 20.0862 5.97602C20.3424 6.31973 20.4424 6.68842 20.4236 7.05087L16.4242 6.53845C16.4054 6.35097 16.3117 6.16975 16.1555 6.05101C16.0744 5.98759 15.9795 5.94432 15.8785 5.92477C15.7774 5.9052 15.6731 5.90993 15.5743 5.93853H15.568Z" fill="url(#paint7_linear_364_12809)"/>
<path d="M15.568 5.93853L14.0933 2.06405C14.3807 1.97032 14.6994 1.97656 15.0307 2.1078C15.7822 2.40262 16.4559 2.86664 16.9992 3.46386C17.358 3.86017 17.7857 4.18832 18.2615 4.43249C18.9786 4.80243 19.6024 5.33017 20.0862 5.97602C20.3424 6.31973 20.4424 6.68842 20.4236 7.05087L16.4242 6.53845C16.4054 6.35097 16.3117 6.16975 16.1555 6.05101C16.0744 5.98759 15.9795 5.94432 15.8785 5.92477C15.7774 5.9052 15.6731 5.90993 15.5743 5.93853H15.568Z" fill="url(#paint8_radial_364_12809)" fill-opacity="0.2"/>
<path d="M15.0496 6.23847C14.8621 6.51969 14.8872 6.89463 15.0934 7.1446L12.7438 10.6191C12.6649 10.5102 12.6232 10.3787 12.6251 10.2442L12.6312 4.38873C12.6312 3.4701 13.0437 2.61397 13.6686 2.23901L15.1246 6.15098L15.0496 6.23847Z" fill="url(#paint9_linear_364_12809)"/>
<path d="M15.0496 6.23847C14.8621 6.51969 14.8872 6.89463 15.0934 7.1446L12.7438 10.6191C12.6649 10.5102 12.6232 10.3787 12.6251 10.2442L12.6312 4.38873C12.6312 3.4701 13.0437 2.61397 13.6686 2.23901L15.1246 6.15098L15.0496 6.23847Z" fill="url(#paint10_radial_364_12809)" fill-opacity="0.2"/>
<path d="M20.3993 7.43834C20.2785 7.80862 20.0718 8.14499 19.7959 8.41984C19.5199 8.69468 19.1828 8.90015 18.812 9.01936L13.4877 10.8316C13.3762 10.8692 13.2554 10.8692 13.144 10.8316L15.5562 7.34459C15.8311 7.45083 16.1498 7.35085 16.3374 7.09463C16.3686 7.03839 16.3998 6.9884 16.4186 6.93216L20.3993 7.44458V7.43834Z" fill="url(#paint11_linear_364_12809)"/>
<path d="M20.3993 7.43834C20.2785 7.80862 20.0718 8.14499 19.7959 8.41984C19.5199 8.69468 19.1828 8.90015 18.812 9.01936L13.4877 10.8316C13.3762 10.8692 13.2554 10.8692 13.144 10.8316L15.5562 7.34459C15.8311 7.45083 16.1498 7.35085 16.3374 7.09463C16.3686 7.03839 16.3998 6.9884 16.4186 6.93216L20.3993 7.44458V7.43834Z" fill="url(#paint12_radial_364_12809)" fill-opacity="0.2"/>
<path d="M10.1058 2.06402L8.63099 5.93851C8.44352 5.87601 8.2248 5.9135 8.04982 6.05099C7.8936 6.17596 7.79985 6.35094 7.77486 6.53843L3.7879 7.05084C3.76291 6.68839 3.86289 6.3197 4.11911 5.97599C4.60285 5.33014 5.22674 4.8024 5.94387 4.43246C6.41957 4.18829 6.84721 3.86014 7.20619 3.46383C7.74769 2.8674 8.41905 2.40343 9.16849 2.10777C9.49963 1.98279 9.81838 1.97029 10.1058 2.05778V2.06402Z" fill="url(#paint13_linear_364_12809)"/>
<path d="M5.41356 9.01309C5.04439 8.89409 4.70867 8.68936 4.43385 8.41563C4.15905 8.14191 3.95298 7.80699 3.83252 7.4383L7.80698 6.92587C7.82574 6.98211 7.85697 7.03211 7.88822 7.0821C8.07569 7.34456 8.38815 7.44455 8.66937 7.33832L11.0753 10.8253C10.9637 10.8629 10.843 10.8629 10.7316 10.8253L5.41981 9.01309H5.41356Z" fill="url(#paint14_linear_364_12809)"/>
<path d="M8.90672 7.1446C9.02124 7.00262 9.08106 6.82431 9.07533 6.642C9.06958 6.4597 8.99869 6.28548 8.87549 6.15098L10.3315 2.23901C10.9565 2.61397 11.3626 3.47636 11.3689 4.38873L11.3751 10.2629C11.3756 10.3953 11.334 10.5243 11.2564 10.6317L8.90672 7.1446Z" fill="url(#paint15_linear_364_12809)"/>
<defs>
<linearGradient id="paint0_linear_364_12809" x1="-7.27831" y1="5.81964" x2="-1.83136" y2="21.6353" gradientUnits="userSpaceOnUse">
<stop offset="0.46" stop-color="#EA302A"/>
<stop offset="1" stop-color="#C5151B"/>
</linearGradient>
<linearGradient id="paint1_linear_364_12809" x1="14.1091" y1="1.17402" x2="24.399" y2="16.977" gradientUnits="userSpaceOnUse">
<stop offset="0.46" stop-color="#EA302A"/>
<stop offset="1" stop-color="#C5151B"/>
</linearGradient>
<linearGradient id="paint2_linear_364_12809" x1="11.9681" y1="21.9948" x2="11.9681" y2="-0.0620455" gradientUnits="userSpaceOnUse">
<stop stop-color="#AF0F14"/>
<stop offset="1" stop-color="#DA181F"/>
</linearGradient>
<linearGradient id="paint3_linear_364_12809" x1="1.02257" y1="24.9171" x2="1.02257" y2="16.0286" gradientUnits="userSpaceOnUse">
<stop stop-color="#AF0F14"/>
<stop offset="1" stop-color="#DA181F"/>
</linearGradient>
<linearGradient id="paint4_linear_364_12809" x1="22.7366" y1="25.3241" x2="22.7366" y2="16.2509" gradientUnits="userSpaceOnUse">
<stop stop-color="#AF0F14"/>
<stop offset="1" stop-color="#DA181F"/>
</linearGradient>
<linearGradient id="paint5_linear_364_12809" x1="2.00623" y1="17.293" x2="11.5849" y2="3.96867" gradientUnits="userSpaceOnUse">
<stop stop-color="#AF0F14"/>
<stop offset="0.87" stop-color="#DA181F"/>
</linearGradient>
<linearGradient id="paint6_linear_364_12809" x1="-9.90978" y1="15.8219" x2="2.37426" y2="6.78248" gradientUnits="userSpaceOnUse">
<stop stop-color="#AF0F14"/>
<stop offset="0.87" stop-color="#DA181F"/>
</linearGradient>
<linearGradient id="paint7_linear_364_12809" x1="9.81553" y1="7.47356" x2="-7.40547" y2="28.8169" gradientUnits="userSpaceOnUse">
<stop stop-color="#F9B198"/>
<stop offset="1" stop-color="#EE1C25"/>
</linearGradient>
<radialGradient id="paint8_radial_364_12809" cx="0" cy="0" r="1" gradientUnits="userSpaceOnUse" gradientTransform="translate(6.18408 24.6968) rotate(-56.1468) scale(8.63113 7.29916)">
<stop stop-color="#F1373A"/>
<stop offset="1" stop-color="#EC5F33"/>
</radialGradient>
<linearGradient id="paint9_linear_364_12809" x1="31.7994" y1="4.72968" x2="27.7924" y2="25.157" gradientUnits="userSpaceOnUse">
<stop stop-color="#F9B198"/>
<stop offset="1" stop-color="#EE1C25"/>
</linearGradient>
<radialGradient id="paint10_radial_364_12809" cx="0" cy="0" r="1" gradientUnits="userSpaceOnUse" gradientTransform="translate(22.7998 15.1094) rotate(-19.9595) scale(12.6548 7.42227)">
<stop stop-color="#F1373A"/>
<stop offset="1" stop-color="#EC5F33"/>
</radialGradient>
<linearGradient id="paint11_linear_364_12809" x1="11.4405" y1="-16.0729" x2="-10.8805" y2="2.70569" gradientUnits="userSpaceOnUse">
<stop stop-color="#F9B198"/>
<stop offset="1" stop-color="#EE1C25"/>
</linearGradient>
<radialGradient id="paint12_radial_364_12809" cx="0" cy="0" r="1" gradientUnits="userSpaceOnUse" gradientTransform="translate(8.27096 6.07342) rotate(-65.5187) scale(10.1272 6.98178)">
<stop stop-color="#F1373A"/>
<stop offset="1" stop-color="#EC5F33"/>
</radialGradient>
<linearGradient id="paint13_linear_364_12809" x1="10.5521" y1="9.50057" x2="31.3493" y2="37.7569" gradientUnits="userSpaceOnUse">
<stop stop-color="#EE2729"/>
<stop offset="1" stop-color="#EE1C25"/>
</linearGradient>
<linearGradient id="paint14_linear_364_12809" x1="9.33413" y1="-13.4319" x2="37.2459" y2="12.3142" gradientUnits="userSpaceOnUse">
<stop stop-color="#EE2729"/>
<stop offset="1" stop-color="#EE1C25"/>
</linearGradient>
<linearGradient id="paint15_linear_364_12809" x1="6.51926" y1="3.89505" x2="11.3874" y2="11.9626" gradientUnits="userSpaceOnUse">
<stop stop-color="#EE2729"/>
<stop offset="1" stop-color="#EE1C25"/>
</linearGradient>
</defs>
</svg>

<svg xmlns="http://www.w3.org/2000/svg" width="24" height="24" fill="none" viewBox="0 0 24 24">
    <path fill="url(#TAO__a)" d="m21.749 10.97-3.037 2.68c.106.175.144.4.075.612a.7.7 0 0 1-.356.432l.768 4.161c.368-.103.682-.345.875-.674a5.7 5.7 0 0 0 .825-2.306 4.7 4.7 0 0 1 .481-1.563 5.8 5.8 0 0 0 .619-2.38c.012-.376-.081-.7-.25-.963"/>
    <path fill="#EA302A" d="M17.562 13.7a.67.67 0 0 1 .906-.269l3.074-2.706c-.537-.518-1.437-.668-2.268-.393l-5.312 1.806a.56.56 0 0 0-.293.237l3.886 1.325z"/>
    <path fill="url(#TAO__b)" d="M16.956 17.83c.475.688 1.225 1.126 1.913 1.1l-.77-4.136a.5.5 0 0 1-.162-.032.72.72 0 0 1-.475-.7l-3.899-1.33a.6.6 0 0 0 .106.337z"/>
    <path fill="url(#TAO__c)" d="m15.918 21.249-3.356-2.218a.67.67 0 0 1-.531.268.67.67 0 0 1-.494-.225L8.02 21.137c.188.306.475.543.875.662a5 5 0 0 0 2.337.112 4.2 4.2 0 0 1 1.562 0c.775.15 1.588.106 2.338-.118.343-.1.606-.294.787-.538z"/>
    <path fill="url(#TAO__d)" d="M12.163 17.862a.713.713 0 0 1 .53.819l3.394 2.243c.306-.7.163-1.65-.35-2.393l-3.268-4.75a.56.56 0 0 0-.313-.225v4.306z"/>
    <path fill="url(#TAO__e)" d="M8.238 18.55a2.62 2.62 0 0 0-.406 2.249l3.512-2.043a.714.714 0 0 1 .462-.862V13.58a.56.56 0 0 0-.275.213l-3.293 4.75z"/>
    <path fill="url(#TAO__f)" d="m5.288 13.65-3.043-2.68a1.7 1.7 0 0 0-.245.96c.031.813.25 1.644.625 2.381a4.9 4.9 0 0 1 .475 1.563 5.75 5.75 0 0 0 .825 2.312c.231.362.537.575.875.668l.768-4.161a.7.7 0 0 1-.356-.432.75.75 0 0 1 .075-.612"/>
    <path fill="url(#TAO__g)" d="M5.157 18.912c.688.025 1.438-.406 1.912-1.1l3.281-4.75a.6.6 0 0 0 .107-.343l-3.894 1.33a.73.73 0 0 1-.475.7 1 1 0 0 1-.168.032z"/>
    <path fill="#DA181F" d="M5.646 13.394a.66.66 0 0 1 .8.318l3.899-1.33a.57.57 0 0 0-.3-.232l-5.312-1.812c-.83-.275-1.737-.125-2.274.4l3.08 2.7z"/>
    <path fill="url(#TAO__h)" d="m15.568 5.939-1.475-3.875a1.36 1.36 0 0 1 .938.044 5.26 5.26 0 0 1 1.968 1.356c.359.396.787.724 1.263.968.717.37 1.34.898 1.824 1.544.256.344.356.712.338 1.075l-4-.513a.7.7 0 0 0-.268-.487.65.65 0 0 0-.582-.112z"/>
    <path fill="url(#TAO__i)" fill-opacity=".2" d="m15.568 5.939-1.475-3.875a1.36 1.36 0 0 1 .938.044 5.26 5.26 0 0 1 1.968 1.356c.359.396.787.724 1.263.968.717.37 1.34.898 1.824 1.544.256.344.356.712.338 1.075l-4-.513a.7.7 0 0 0-.268-.487.65.65 0 0 0-.582-.112z"/>
    <path fill="url(#TAO__j)" d="M15.05 6.238a.77.77 0 0 0 .043.907l-2.35 3.474a.62.62 0 0 1-.118-.375l.006-5.855c0-.919.413-1.775 1.038-2.15l1.456 3.912z"/>
    <path fill="url(#TAO__k)" fill-opacity=".2" d="M15.05 6.238a.77.77 0 0 0 .043.907l-2.35 3.474a.62.62 0 0 1-.118-.375l.006-5.855c0-.919.413-1.775 1.038-2.15l1.456 3.912z"/>
    <path fill="url(#TAO__l)" d="M20.4 7.438a2.46 2.46 0 0 1-1.588 1.581l-5.324 1.813a.54.54 0 0 1-.344 0l2.412-3.487a.67.67 0 0 0 .781-.25c.032-.057.063-.107.082-.163l3.98.513z"/>
    <path fill="url(#TAO__m)" fill-opacity=".2" d="M20.4 7.438a2.46 2.46 0 0 1-1.588 1.581l-5.324 1.813a.54.54 0 0 1-.344 0l2.412-3.487a.67.67 0 0 0 .781-.25c.032-.057.063-.107.082-.163l3.98.513z"/>
    <path fill="url(#TAO__n)" d="M10.106 2.064 8.63 5.939a.62.62 0 0 0-.581.112.75.75 0 0 0-.275.487l-3.987.513a1.6 1.6 0 0 1 .331-1.075 5.3 5.3 0 0 1 1.825-1.544 4.4 4.4 0 0 0 1.262-.968 5.26 5.26 0 0 1 1.962-1.356c.332-.125.65-.138.938-.05z"/>
    <path fill="url(#TAO__o)" d="M5.414 9.013a2.46 2.46 0 0 1-1.581-1.575l3.974-.512c.019.056.05.106.081.156.188.263.5.363.781.256l2.406 3.487a.54.54 0 0 1-.343 0L5.42 9.013z"/>
    <path fill="url(#TAO__p)" d="M8.907 7.145a.76.76 0 0 0-.032-.994l1.457-3.912c.624.375 1.03 1.237 1.037 2.15l.006 5.874a.63.63 0 0 1-.119.369z"/>
    <defs>
        <linearGradient id="TAO__a" x1="-7.278" x2="-1.831" y1="5.82" y2="21.635" gradientUnits="userSpaceOnUse">
            <stop offset=".46" stop-color="#EA302A"/>
            <stop offset="1" stop-color="#C5151B"/>
        </linearGradient>
        <linearGradient id="TAO__b" x1="14.109" x2="24.399" y1="1.174" y2="16.977" gradientUnits="userSpaceOnUse">
            <stop offset=".46" stop-color="#EA302A"/>
            <stop offset="1" stop-color="#C5151B"/>
        </linearGradient>
        <linearGradient id="TAO__c" x1="11.968" x2="11.968" y1="21.995" y2="-.062" gradientUnits="userSpaceOnUse">
            <stop stop-color="#AF0F14"/>
            <stop offset="1" stop-color="#DA181F"/>
        </linearGradient>
        <linearGradient id="TAO__d" x1="1.023" x2="1.023" y1="24.917" y2="16.029" gradientUnits="userSpaceOnUse">
            <stop stop-color="#AF0F14"/>
            <stop offset="1" stop-color="#DA181F"/>
        </linearGradient>
        <linearGradient id="TAO__e" x1="22.737" x2="22.737" y1="25.324" y2="16.251" gradientUnits="userSpaceOnUse">
            <stop stop-color="#AF0F14"/>
            <stop offset="1" stop-color="#DA181F"/>
        </linearGradient>
        <linearGradient id="TAO__f" x1="2.006" x2="11.585" y1="17.293" y2="3.969" gradientUnits="userSpaceOnUse">
            <stop stop-color="#AF0F14"/>
            <stop offset=".87" stop-color="#DA181F"/>
        </linearGradient>
        <linearGradient id="TAO__g" x1="-9.91" x2="2.374" y1="15.822" y2="6.782" gradientUnits="userSpaceOnUse">
            <stop stop-color="#AF0F14"/>
            <stop offset=".87" stop-color="#DA181F"/>
        </linearGradient>
        <linearGradient id="TAO__h" x1="9.816" x2="-7.405" y1="7.474" y2="28.817" gradientUnits="userSpaceOnUse">
            <stop stop-color="#F9B198"/>
            <stop offset="1" stop-color="#EE1C25"/>
        </linearGradient>
        <linearGradient id="TAO__j" x1="31.799" x2="27.792" y1="4.73" y2="25.157" gradientUnits="userSpaceOnUse">
            <stop stop-color="#F9B198"/>
            <stop offset="1" stop-color="#EE1C25"/>
        </linearGradient>
        <linearGradient id="TAO__l" x1="11.441" x2="-10.88" y1="-16.073" y2="2.706" gradientUnits="userSpaceOnUse">
            <stop stop-color="#F9B198"/>
            <stop offset="1" stop-color="#EE1C25"/>
        </linearGradient>
        <linearGradient id="TAO__n" x1="10.552" x2="31.349" y1="9.501" y2="37.757" gradientUnits="userSpaceOnUse">
            <stop stop-color="#EE2729"/>
            <stop offset="1" stop-color="#EE1C25"/>
        </linearGradient>
        <linearGradient id="TAO__o" x1="9.334" x2="37.246" y1="-13.432" y2="12.314" gradientUnits="userSpaceOnUse">
            <stop stop-color="#EE2729"/>
            <stop offset="1" stop-color="#EE1C25"/>
        </linearGradient>
        <linearGradient id="TAO__p" x1="6.519" x2="11.387" y1="3.895" y2="11.963" gradientUnits="userSpaceOnUse">
            <stop stop-color="#EE2729"/>
            <stop offset="1" stop-color="#EE1C25"/>
        </linearGradient>
        <radialGradient id="TAO__i" cx="0" cy="0" r="1" gradientTransform="matrix(4.80812 -7.16787 6.06172 4.06612 6.184 24.697)" gradientUnits="userSpaceOnUse">
            <stop stop-color="#F1373A"/>
            <stop offset="1" stop-color="#EC5F33"/>
        </radialGradient>
        <radialGradient id="TAO__k" cx="0" cy="0" r="1" gradientTransform="matrix(11.89472 -4.31969 2.53357 6.97647 22.8 15.109)" gradientUnits="userSpaceOnUse">
            <stop stop-color="#F1373A"/>
            <stop offset="1" stop-color="#EC5F33"/>
        </radialGradient>
        <radialGradient id="TAO__m" cx="0" cy="0" r="1" gradientTransform="matrix(4.19663 -9.21675 6.3541 2.89319 8.27 6.074)" gradientUnits="userSpaceOnUse">
            <stop stop-color="#F1373A"/>
            <stop offset="1" stop-color="#EC5F33"/>
        </radialGradient>
    </defs>
</svg>
